polaris-icons/icons/CollectionListIcon.svg

<svg viewBox="0 0 20 20" xmlns="http://www.w3.org/2000/svg">
<path d="M10.6716 7.5C11.2239 7.5 11.6716 7.05228 11.6716 6.5C11.6716 5.94772 11.2239 5.5 10.6716 5.5C10.1193 5.5 9.67157 5.94772 9.67157 6.5C9.67157 7.05228 10.1193 7.5 10.6716 7.5Z"/>
<path fill-rule="evenodd" d="M6.68849 4.09835C7.39175 3.39509 8.34558 3 9.34014 3H11.4216C12.9404 3 14.1716 4.23122 14.1716 5.75V8.03854C14.1716 8.9005 13.8292 9.72714 13.2197 10.3366L9.01341 14.5429C8.0371 15.5192 6.45419 15.5192 5.47788 14.5429L2.80546 11.8705C1.73152 10.7965 1.73151 9.05532 2.80546 7.98138L6.68849 4.09835ZM9.34014 4.5C8.7434 4.5 8.17111 4.73705 7.74915 5.15901L3.86612 9.04204C3.37796 9.5302 3.37796 10.3217 3.86612 10.8098L6.53854 13.4822C6.92906 13.8728 7.56223 13.8728 7.95275 13.4822L12.159 9.27598C12.4872 8.94779 12.6716 8.50267 12.6716 8.03854V5.75C12.6716 5.05965 12.1119 4.5 11.4216 4.5H9.34014Z"/>
<path d="M16.6716 6.25C16.6716 5.83579 16.3358 5.5 15.9216 5.5C15.5074 5.5 15.1716 5.83579 15.1716 6.25V9.21447C15.1716 9.6786 14.9872 10.1237 14.659 10.4519L14.6412 10.4697C14.3483 10.7626 14.3483 11.2374 14.6412 11.5303C14.9341 11.8232 15.409 11.8232 15.7019 11.5303L15.7197 11.5126C16.3292 10.9031 16.6716 10.0764 16.6716 9.21447V6.25Z"/>
<path d="M11.6198 14.0508C11.6198 13.6366 11.9556 13.3008 12.3698 13.3008H17.8698C18.284 13.3008 18.6198 13.6366 18.6198 14.0508C18.6198 14.465 18.284 14.8008 17.8698 14.8008H12.3698C11.9556 14.8008 11.6198 14.465 11.6198 14.0508Z"/>
<path d="M11.6198 17.0508C11.6198 16.6366 11.9556 16.3008 12.3698 16.3008H17.8698C18.284 16.3008 18.6198 16.6366 18.6198 17.0508C18.6198 17.465 18.284 17.8008 17.8698 17.8008H12.3698C11.9556 17.8008 11.6198 17.465 11.6198 17.0508Z"/>
</svg>

<svg xmlns="http://www.w3.org/2000/svg" viewBox="0 0 20 20"><path d="M10.672 7.5c.552 0 1-.448 1-1s-.448-1-1-1c-.553 0-1 .448-1 1s.447 1 1 1Z"/><path fill-rule="evenodd" d="M6.688 4.098c.704-.703 1.658-1.098 2.652-1.098h2.082c1.518 0 2.75 1.231 2.75 2.75v2.289c0 .861-.343 1.688-.952 2.298l-4.207 4.206c-.976.976-2.559.976-3.535 0l-2.673-2.672c-1.073-1.075-1.073-2.816 0-3.89l3.883-3.883Zm2.652.402c-.597 0-1.169.237-1.59.659l-3.884 3.883c-.488.488-.488 1.28 0 1.768l2.673 2.672c.39.39 1.023.39 1.414 0l4.206-4.206c.328-.328.513-.773.513-1.237v-2.289c0-.69-.56-1.25-1.25-1.25h-2.082Z"/><path d="M16.672 6.25c0-.414-.336-.75-.75-.75-.415 0-.75.336-.75.75v2.964c0 .465-.185.91-.513 1.238l-.018.018c-.293.293-.293.767 0 1.06.293.293.768.293 1.06 0l.019-.017c.61-.61.952-1.437.952-2.299v-2.964Z"/><path d="M11.62 14.05c0-.413.336-.75.75-.75h5.5c.414 0 .75.337.75.75 0 .415-.336.75-.75.75h-5.5c-.414 0-.75-.335-.75-.75Z"/><path d="M11.62 17.05c0-.413.336-.75.75-.75h5.5c.414 0 .75.337.75.75 0 .415-.336.75-.75.75h-5.5c-.414 0-.75-.335-.75-.75Z"/></svg>
